assets/gradio/original.svg

<svg viewBox="0 0 24 24" xmlns="http://www.w3.org/2000/svg" fill="#F97316"><path d="m12 1.527a1.532 1.532 0 0 0 -.76.203l-10.4705 6.002a1.532 1.532 0 0 0 -.7695 1.289v.088a1.532 1.532 0 0 0 .7695 1.291l2.8005 1.6-2.8005 1.61c-.5135.29-.7695.81-.7695 1.33 0 .51.256 1.03.7695 1.32l10.4705 6.01c.47.27 1.05.27 1.52 0l10.47-6.01c.5-.28.76-.78.77-1.29v-.07c-.01-.5-.27-1.01-.77-1.29l-2.81-1.61 2.81-1.6a1.532 1.532 0 0 0 .77-1.177v-.313a1.532 1.532 0 0 0 -.77-1.178l-10.47-6.002a1.532 1.532 0 0 0 -.76-.203zm0 3.299 7.39 4.235-2.05 1.179-4.58-2.638c-.23-.132-.49-.204-.76-.204s-.53.071-.76.204l-4.588 2.638-2.039-1.179zm0 5.874 2.27 1.3-2.27 1.3-2.266-1.3zm-5.348 3.07 4.588 2.62a1.532 1.532 0 0 0 1.52 0l4.58-2.62 2.05 1.17-7.39 4.23-7.387-4.23z"/></svg>

<svg xmlns="http://www.w3.org/2000/svg" fill="#f97316" viewBox="0 0 24 24"><path d="M12 1.527a1.53 1.53 0 0 0-.76.203L.77 7.732A1.53 1.53 0 0 0 0 9.021v.088A1.53 1.53 0 0 0 .77 10.4l2.8 1.6-2.8 1.61c-.514.29-.77.81-.77 1.33 0 .51.256 1.03.77 1.32l10.47 6.01c.47.27 1.05.27 1.52 0l10.47-6.01c.5-.28.76-.78.77-1.29v-.07c-.01-.5-.27-1.01-.77-1.29L20.42 12l2.81-1.6A1.53 1.53 0 0 0 24 9.223V8.91a1.53 1.53 0 0 0-.77-1.178L12.76 1.73a1.53 1.53 0 0 0-.76-.203m0 3.299 7.39 4.235-2.05 1.179-4.58-2.638a1.52 1.52 0 0 0-1.52 0L6.652 10.24 4.613 9.061zm0 5.874 2.27 1.3L12 13.3 9.734 12zm-5.348 3.07 4.588 2.62a1.53 1.53 0 0 0 1.52 0l4.58-2.62 2.05 1.17L12 19.17l-7.387-4.23z"/></svg>
